app/img/text-p.svg

<svg width="375" height="436" viewBox="0 0 375 436" fill="none" xmlns="http://www.w3.org/2000/svg">
<path fill-rule="evenodd" clip-rule="evenodd" d="M-35.2054 687.461H-82C-82 687.461 105.848 109.284 125.75 48.0486C135.062 19.398 161.757 0 191.877 0H275.534C300.762 0 321.817 10.6562 334.908 28.6634C347.99 46.6715 351.701 69.7134 344.073 93.22C336.434 116.726 329.219 138.916 322.614 159.247C313.696 186.699 288.99 205.614 260.425 207.153C260.425 207.153 260.277 207.105 300.3 83.9191C303.834 73.0483 302.544 62.4078 296.992 54.7764C291.451 47.1459 282.1 42.6299 269.727 42.6299H197.941C183.845 42.6299 171.354 51.7073 166.993 65.1147L-35.2054 687.461Z" fill="#F0145A"/>
<path fill-rule="evenodd" clip-rule="evenodd" d="M260.416 207.155H166.098L207.656 80.7613L254.673 81.0391L227.372 164.394L274.249 164.422L260.416 207.155Z" fill="url(#paint0_linear)"/>
<defs>
<linearGradient id="paint0_linear" x1="166.091" y1="182.946" x2="271.01" y2="237.784" gradientUnits="userSpaceOnUse">
<stop stop-color="#F0145A"/>
<stop offset="1" stop-color="#693264"/>
</linearGradient>
</defs>
</svg>

<svg width="375" height="436" fill="none" xmlns="http://www.w3.org/2000/svg"><path fill-rule="evenodd" clip-rule="evenodd" d="M-35.205 687.461H-82S105.848 109.284 125.75 48.049C135.062 19.398 161.757 0 191.877 0h83.657c25.228 0 46.283 10.656 59.374 28.663 13.082 18.009 16.793 41.05 9.165 64.557-7.639 23.506-14.854 45.696-21.459 66.027-8.918 27.452-33.624 46.367-62.189 47.906 0 0-.148-.048 39.875-123.234 3.534-10.87 2.244-21.511-3.308-29.143-5.541-7.63-14.892-12.146-27.265-12.146h-71.786c-14.096 0-26.587 9.077-30.948 22.485L-35.205 687.46z" fill="#F0145A"/><path fill-rule="evenodd" clip-rule="evenodd" d="M260.416 207.155h-94.318l41.558-126.394 47.017.278-27.301 83.355 46.877.028-13.833 42.733z" fill="url(#paint0_linear)"/><defs><linearGradient id="paint0_linear" x1="166.091" y1="182.946" x2="271.01" y2="237.784" gradientUnits="userSpaceOnUse"><stop stop-color="#F0145A"/><stop offset="1" stop-color="#693264"/></linearGradient></defs></svg>
